X: 352
T:Dulces exuviae
N: Derived from Jos2811-Dulces_exuviae.krn
C: Josquin des Prez
%%abc-version 2.0
%%abcx-abcm2ps-target-version 5.9.1 (29 Sep 2008)
%%abc-creator hum2abc beta
%%abcx-conversion-date 2019/02/12 16:15:54
%%abc-edited-by Jesse Rodin
%%abc-edited-by Jesse Rodin; Victoria Chang 2011/07/27
%%abcx-initial-encoding-date 2011/07/27/
%%humdrum-veritas 1880504239
%%humdrum-veritas-data 3701002975
%%linebreak <none>
%%barnumbers 0
L: 1/4
M: 2/1
Q: 1/2=120
%%staves [1 2 3 4]
V: 1 clef=treble
V: 2 clef=treble-8
V: 3 clef=treble-8
V: 4 clef=bass
K: C
[V:1] z8 | 
[V:2] A8- | 
[V:3] z8 | 
[V:4] z8 | 
[V:1] z8 | 
[V:2] A8 | 
[V:3] z8 | 
[V:4] z8 | 
[V:1] z8 | 
[V:2] c8 | 
[V:3] z8 | 
[V:4] z8 | 
[V:1] z8 | 
[V:2] d8- | 
[V:3] z8 | 
[V:4] D,8- | 
[V:1] z8 | 
[V:2] d4B4 | 
[V:3] z8 | 
[V:4] D,8 | 
[V:1] z8 | 
[V:2] A8 | 
[V:3] z8 | 
[V:4] F,8 | 
[V:1] z8 | 
[V:2] G8 | 
[V:3] E8- | 
[V:4] G,8 | 
[V:1] z8 | 
[V:2] c8- | 
[V:3] E8 | 
[V:4] C,8 | 
[V:1] z8 | 
[V:2] c4B4 | 
[V:3] G8 | 
[V:4] C,4E,4 | 
[V:1] E8- | 
[V:2] A6c2- | 
[V:3] A8- | 
[V:4] A,,8 | 
[V:1] E8 | 
[V:2] c2BAB4- | 
[V:3] A4G4 | 
[V:4] z8 | 
[V:1] G4G4 | 
[V:2] B4e4 | 
[V:3] G8 | 
[V:4] E,8 | 
[V:1] A8- | 
[V:2] A2c3BAG | 
[V:3] c8- | 
[V:4] F,8- | 
[V:1] A4G4 | 
[V:2] F4G4 | 
[V:3] c8 | 
[V:4] F,4E,4 | 
[V:1] G8- | 
[V:2] E4z2G2- | 
[V:3] c2BAG4 | 
[V:4] C,4E,4- | 
[V:1] G8 | 
[V:2] G2F2E2D2 | 
[V:3] z4G4 | 
[V:4] E,2D,2C,2B,,2 | 
[V:1] z8 | 
[V:2] C2c4B2 | 
[V:3] A3Bc2d2- | 
[V:4] A,,2A,4G,2 | 
[V:1] z8 | 
[V:2] A2G2F2E2 | 
[V:3] d2c2BAA2- | 
[V:4] F,2E,2D,2C,2 | 
[V:1] z4c4- | 
[V:2] D4E4 | 
[V:3] A2^G2A4- | 
[V:4] B,,4A,,4- | 
[V:1] c4B4 | 
[V:2] z2A4G2 | 
[V:3] A4E4 | 
[V:4] A,,4z4 | 
[V:1] A4G2G2- | 
[V:2] A2GFE2e2- | 
[V:3] A4B2c2- | 
[V:4] z8 | 
[V:1] G2F2E4 | 
[V:2] e2d4c2 | 
[V:3] c2d2A4 | 
[V:4] z8 | 
[V:1] D4F4 | 
[V:2] d2cBA4- | 
[V:3] D2F3GA2- | 
[V:4] D,8 | 
[V:1] E2D4^C2 | 
[V:2] A4A3G | 
[V:3] A2GFE4 | 
[V:4] A,,8 | 
[V:1] D8 | 
[V:2] F3ED4- | 
[V:3] D3EF2G2- | 
[V:4] _B,,8 | 
[V:1] B,8 | 
[V:2] D4G4 | 
[V:3] G2FED4 | 
[V:4] G,,4G,,4 | 
[V:1] C2D4^C2 | 
[V:2] F3E/D/E4 | 
[V:3] A8- | 
[V:4] A,,8 | 
[V:1] D8 | 
[V:2] D4z4 | 
[V:3] A8 | 
[V:4] z8 | 
[V:1] z8 | 
[V:2] d4d2d2 | 
[V:3] D4z4 | 
[V:4] G,,4G,,2G,,2 | 
[V:1] z8 | 
[V:2] d4d4 | 
[V:3] G4G2G2 | 
[V:4] G,,4G,,4 | 
[V:1] G4G2G2 | 
[V:2] e8- | 
[V:3] G4G4 | 
[V:4] C,8- | 
[V:1] G4G4 | 
[V:2] e4e4 | 
[V:3] c4c4 | 
[V:4] C,4C,4 | 
[V:1] c4c4 | 
[V:2] e8- | 
[V:3] c6BA | 
[V:4] A,,8 | 
[V:1] B8- | 
[V:2] e6dc | 
[V:3] G8 | 
[V:4] E,8- | 
[V:1] B8- | 
[V:2] B8- | 
[V:3] z4G4 | 
[V:4] E,8 | 
[V:1] B8 | 
[V:2] B4e4 | 
[V:3] G4G4 | 
[V:4] z4E,4 | 
[V:1] z4B4 | 
[V:2] d8 | 
[V:3] B4G2B2- | 
[V:4] G,8- | 
[V:1] d8 | 
[V:2] d4f4- | 
[V:3] Bcd4cB | 
[V:4] G,4D,4 | 
[V:1] c6B2 | 
[V:2] f2edc4- | 
[V:3] A6G2 | 
[V:4] F,8- | 
[V:1] A4G4 | 
[V:2] c4c4 | 
[V:3] F4E4 | 
[V:4] F,4C,4 | 
[V:1] F4E4- | 
[V:2] FGABc2A2- | 
[V:3] D4C4 | 
[V:4] D,4A,,4 | 
[V:1] E2D2D4- | 
[V:2] A2GFG4 | 
[V:3] D8 | 
[V:4] B,,8 | 
[V:1] D2^CB,C3B, | 
[V:2] A4z2A2- | 
[V:3] E8 | 
[V:4] A,,8 | 
[V:1] D8- | 
[V:2] A2G2F2E2 | 
[V:3] D8 | 
[V:4] z8 | 
[V:1] D8 | 
[V:2] D4d4 | 
[V:3] z8 | 
[V:4] D,8 | 
[V:1] z8 | 
[V:2] d4f4 | 
[V:3] A8 | 
[V:4] D,8 | 
[V:1] A8 | 
[V:2] e2f4ed | 
[V:3] A8 | 
[V:4] z4F,4- | 
[V:1] A8 | 
[V:2] c2f4ed | 
[V:3] z4c4- | 
[V:4] F,4F,4 | 
[V:1] z4c4- | 
[V:2] e4z2e2- | 
[V:3] c4c4 | 
[V:4] C,6C,2 | 
[V:1] c4c4 | 
[V:2] edcBc2BA | 
[V:3] G6G2 | 
[V:4] C,8 | 
[V:1] G6G2 | 
[V:2] B4c2e2- | 
[V:3] G4c4- | 
[V:4] z8 | 
[V:1] G8 | 
[V:2] e2dcd4 | 
[V:3] c2BAB4 | 
[V:4] z4G,4 | 
[V:1] z4z2c2- | 
[V:2] c4z4 | 
[V:3] A2c2B2A2 | 
[V:4] A,2F,2G,2A,2- | 
[V:1] c2BAG2A2- | 
[V:2] z8 | 
[V:3] c2d2e2A2- | 
[V:4] A,2G,F,E,2F,2- | 
[V:1] A2GFE4 | 
[V:2] z8 | 
[V:3] A2B2cBAG | 
[V:4] F,2E,D,C,4 | 
[V:1] D4F4- | 
[V:2] z8 | 
[V:3] F2A3GFE | 
[V:4] D,8 | 
[V:1] F4E4 | 
[V:2] z2A4G2 | 
[V:3] F2EDC2E2- | 
[V:4] D,4A,,2C,2- | 
[V:1] C4D4 | 
[V:2] E2A4^G2 | 
[V:3] E2F2D4 | 
[V:4] C,2B,,A,,B,,4 | 
[V:1] CDEFGAB2 | 
[V:2] A4z4 | 
[V:3] EFGABcd2 | 
[V:4] A,,4z2G,,2 | 
[V:1] A2G4^F2 | 
[V:2] z2d2e2d2 | 
[V:3] c2B2A4 | 
[V:4] A,,2B,,2C,2D,2 | 
[V:1] G8 | 
[V:2] B4c4- | 
[V:3] G4z2G2- | 
[V:4] G,,4C,4 | 
[V:1] z4D4 | 
[V:2] c4A4 | 
[V:3] G2FEF4 | 
[V:4] C,4D,4 | 
[V:1] G4G4 | 
[V:2] G4G2E2- | 
[V:3] E4z2E2- | 
[V:4] E,4E,2C,2- | 
[V:1] A4B4 | 
[V:2] E2F2D4 | 
[V:3] E2A4^G2 | 
[V:4] C,2D,2B,,4 | 
[V:1] c8 | 
[V:2] E2e4f2- | 
[V:3] A8 | 
[V:4] A,,4z2A,2- | 
[V:1] z8 | 
[V:2] f2ede2d2- | 
[V:3] z8 | 
[V:4] A,2G,F,G,F,E,D, | 
[V:1] z4A4 | 
[V:2] d2^c2d4 | 
[V:3] z4A4 | 
[V:4] E,4D,4 | 
[V:1] c8 | 
[V:2] e4f4 | 
[V:3] A2c4BA | 
[V:4] z4A,4 | 
[V:1] B4A4 | 
[V:2] g2e4d2 | 
[V:3] G4A4 | 
[V:4] E,2G,2F,4 | 
[V:1] G4E4 | 
[V:2] e8 | 
[V:3] B2c2B2c2- | 
[V:4] E,3F,G,2A,2- | 
[V:1] F8 | 
[V:2] z8 | 
[V:3] cBAGA2GF | 
[V:4] A,G,F,E,F,2E,D, | 
[V:1] E3FG2A2- | 
[V:2] z2e4d2 | 
[V:3] G2c2B2A2 | 
[V:4] C,3D,E,2F,2 | 
[V:1] A2^G2A4 | 
[V:2] e4c4 | 
[V:3] B4A2A2- | 
[V:4] E,4A,,4 | 
[V:1] B4c4 | 
[V:2] B4A4 | 
[V:3] A2G2A2GF | 
[V:4] z4z2A,2- | 
[V:1] z4A4 | 
[V:2] B4c4 | 
[V:3] E4z4 | 
[V:4] A,2G,2A,2A,,2- | 
[V:1] c4B2A2 | 
[V:2] A4G2A2 | 
[V:3] z8 | 
[V:4] A,,B,,C,D,E,2F,2 | 
[V:1] G2E2F4 | 
[V:2] B2c2A4 | 
[V:3] z2A4GF | 
[V:4] E,2C,2D,4 | 
[V:1] E2E4D2 | 
[V:2] z4z2A2- | 
[V:3] G2A2E2F2 | 
[V:4] z2A,,2C,2D,2 | 
[V:1] E8- | 
[V:2] A2GFG2E2- | 
[V:3] E8 | 
[V:4] A,,4C,4- | 
[V:1] E8 | 
[V:2] E2A4^G2 | 
[V:3] z4E4- | 
[V:4] C,2D,2E,4 | 
[V:1] z4E4 | 
[V:2] A4c4 | 
[V:3] E4A4 | 
[V:4] A,,4A,,4 | 
[V:1] G4G4 | 
[V:2] B4e4- | 
[V:3] G4c4- | 
[V:4] E,8 | 
[V:1] A8 | 
[V:2] e2dcd4 | 
[V:3] c4A4 | 
[V:4] F,4F,4 | 
[V:1] G8 | 
[V:2] e8- | 
[V:3] B2c4BA | 
[V:4] E,8- | 
[V:1] B8 |]  
[V:2] e8 |]  
[V:3] G8 |]  
[V:4] E,8 |]  



